X:1
T:Cowman's Prayer
M:3/4
L:1/4
K:C
 G2 A|E/2-D/2 C2| D3/2 E/2 D| C2 C| C E F| G2 G| A G E| D2 G| G2 A|\
 E/2- C3/2 C| D3/2 E/2 D| C2 E/2D/2| C E F| G3|A/2-G/2 E G,| C3|||\
